icons/mathjax.svg

<!--
  - The MIT License (MIT)
  -
  - Copyright (c) 2015-2024 Elior "Mallowigi" Boukhobza
  -
  - Permission is hereby granted, free of charge, to any person obtaining a copy
  - of this software and associated documentation files (the "Software"), to deal
  - in the Software without restriction, including without limitation the rights
  - to use, copy, modify, merge, publish, distribute, sublicense, and/or sell
  - copies of the Software, and to permit persons to whom the Software is
  - furnished to do so, subject to the following conditions:
  -
  - The above copyright notice and this permission notice shall be included in all
  - copies or substantial portions of the Software.
  -
  - THE SOFTWARE IS PROVIDED "AS IS", WITHOUT WARRANTY OF ANY KIND, EXPRESS OR
  - IMPLIED, INCLUDING BUT NOT LIMITED TO THE WARRANTIES OF MERCHANTABILITY,
  - FITNESS FOR A PARTICULAR PURPOSE AND NONINFRINGEMENT. IN NO EVENT SHALL THE
  - AUTHORS OR COPYRIGHT HOLDERS BE LIABLE FOR ANY CLAIM, DAMAGES OR OTHER
  - LIABILITY, WHETHER IN AN ACTION OF CONTRACT, TORT OR OTHERWISE, ARISING FROM,
  - OUT OF OR IN CONNECTION WITH THE SOFTWARE OR THE USE OR OTHER DEALINGS IN THE
  - SOFTWARE.
  -
  -->

<svg version="1.1" xmlns="http://www.w3.org/2000/svg" viewBox="0 0 512 512" width="16px" height="16px">
  <path fill="#2b9a3e" data-iconColor="Mathjax"
        d="M82.2715836,395.3265991c-8.3867645,2.1001587-36.6121216,7.3333435-37.3930817-12.1907349c-0.9175148-24.7728577,129.0025024-139.4620209,129.0025024-139.4620209s-7.8907166-24.5893555-31.3789215-53.7662659c-26.4244308-33.2139893-33.5810852-37.9850769-91.567894-52.481781C7.2604456,126.4156418-17.5124207,82.7420273,14.6005535,37.4168472C43.0434723-2.586715,73.8720169,3.6523087,103.2324524,23.1036587c38.1686554,25.5068607,28.8098297,70.4650116,68.2629089,104.2294922c39.6365509,33.5809708,73.0341797,42.9396133,96.5223999,23.4883194c23.4884338-19.4512939,15.9646301-51.3807449,30.4613953-84.2277145s47.5272522-49.1786919,76.1536255-37.4345322s42.7562256,34.865509,48.0776062,49.9127502c11.7442322,32.6634521-29.1769714,61.6569061-29.1769714,61.6569061s52.1148071-20.1852951,62.757843-11.1936646c10.6432495,8.9916077,5.1381531,16.6987457-21.2862854,43.3066406C402.3414307,205.6888123,332.2434692,281.658905,332.2434692,281.658905s11.5607605,19.6348267,35.4161072,40.1870728c43.6737366,37.8015747,104.0459595,28.2593994,120.9283447,49.5457458c41.8387146,52.4817505,20.7359009,90.6502991-9.9092102,112.3036194c-30.6448364,21.836792-55.0508118,23.1213379-83.4937134,3.6700439c-28.4429321-19.4512634-13.2121277-56.8858032-60.0053101-102.9449768c-27.5253906-27.1583862-70.6485291-69.3639832-86.9803162-48.6282043s-21.2862701,56.3353271-20.9193573,72.6670532c0.917511,43.8571472-25.5069275,88.6318054-55.9683228,92.6688538c-30.4614105,4.0370789-57.0693054,10.643158-93.4029236-31.0119324C57.265625,446.4201355,75.270607,405.8851929,82.2715836,395.3265991z M70.2936935,19.6170635c-13.2121048,0.5504856-18.9925995,12.111187-7.9824371,22.3873501c11.0101624,10.4596748,11.7442169,11.1936722,18.5337296,6.7896194c11.0101624-6.7896194,18.5337296-16.5152397,8.0741653-22.3873482S70.2936935,19.6170635,70.2936935,19.6170635z M92.5892029,64.5752182c13.7627029,14.4967041,38.1686554,42.5726395,40.1871338,40.1870728c2.0184937-2.3855133,2.0184937-5.688591-5.68853-19.0842667s-25.5069275-36.8840485-30.0944901-33.2139931C92.5892029,56.1340828,92.5892029,64.5752182,92.5892029,64.5752182z M359.5856934,36.1323051c-4.4041138-11.0101604-29.5439148,1.4679985-45.8757324,20.5523186c-13.9433289,26.3906326-14.5302124,75.0495834-25.1397705,87.163765c-4.2206421,5.8721161-23.4884338,18.1667633-19.6347046,19.4513092c3.8535156,1.1010132,24.7728577-10.0926514,33.0304871-25.1398926c8.4410706-14.8637314,6.6060486-42.0221024,15.5977173-56.8858337c2.9360046-4.77108,16.1483459-25.3233452,23.1213074-30.2779388C347.6582031,46.2249527,359.5856934,36.1323051,359.5856934,36.1323051z M375.275116,41.9126282c-9.9092102-1.4679985-22.1120605,0.2752991-21.9286194,14.2214546c0.1834717,13.7626991,1.8350525,13.2122154,11.5607605,14.8637276c18.1668091,2.7525406,22.5709229-12.8451843,21.4697266-18.5337791C385.2760315,46.7754364,375.275116,41.9126282,375.275116,41.9126282z M162.6873779,390.29245c-1.2844391-8.9916077,3.1194458-15.7812195,16.6987-9.7256165c13.7626953,6.0555725,16.5152435,18.7173157,10.8267059,19.8182678C184.5242462,401.486145,162.6873779,390.29245,162.6873779,390.29245z M453.9060974,377.4472961c9.725708,7.8905945,34.865509,25.5068359,27.5253906,34.4984741c-7.3401184,8.8081055-3.6700439,1.835022-27.892334-10.2761841c-24.0387878-11.9276733-69.5476685-34.1314697-74.6856079-43.3066101C367.0931396,331.833313,417.161499,352.1532593,453.9060974,377.4472961z M97.5259018,436.5682983c-5.1381683-16.1481934-4.6794128-11.6524353-4.6794128-22.6625977c0-9.9091187,17.6162186-27.8924255,9.9091949-25.5068359c-7.7070236,2.5690002-20.9193573,20.1852722-22.3872452,31.3789673c-5.1381607,38.1685181,6.7895126,50.8302612,13.5792465,54.1332703c24.2222672,12.1112061,21.4697266-7.5236206,17.2492981-13.3956604C106.9763336,454.8268433,99.9115219,444.2754517,97.5259018,436.5682983z M151.2930603,325.8320923c-13.2120972-5.6885986,40.7376251-43.4901733,40.5541687-63.3084412c-0.1834564-27.7089081-17.9833527-51.5642548-25.5069275-63.6754456c-7.3401031-12.294693-12.6617279-13.5791779-11.7442169-19.4512939c1.1009827-5.8721008,27.3419495,15.0472412,39.6365509,41.6551361c10.8266907,23.3048553,15.7811737,32.6634521,6.2391357,59.8218842C195.884201,293.9026184,151.2930603,325.8320923,151.2930603,325.8320923z M265.2651978,204.0373077c-7.890686,3.4865417-20.0018311,7.3401031-21.2862549,13.0287018c-1.4681091,5.6885986,14.6802063,10.8266449,17.7996826,4.9545898c3.1194458-5.8721008,5.1381531-12.4781494,16.6987-17.0657196c11.7442017-4.5875702,163.3173828-62.2073975,164.0514526-66.2444763c0.7340698-3.8535767,5.5050964-4.5875702-8.0741577,0.3670197C420.8753662,143.8485107,273.1559143,200.550705,265.2651978,204.0373077z M58.9257927,375.0863953c0,0,44.5912514-54.7755432,58.7208672-67.0702515c13.9461594-12.2946777,60.1889725-55.2342987,60.1889725-55.2342987s-32.1129608,38.1685333-49.3622742,53.3992767C95.6263351,335.7250671,98.0119629,335.2662964,58.9257927,375.0863953z"/>
</svg>

<svg xmlns="http://www.w3.org/2000/svg" viewBox="0 0 512 512"><path fill="#2b9a3e" d="M82.272 395.327c-8.387 2.1-36.613 7.333-37.393-12.191-.918-24.773 129.002-139.462 129.002-139.462s-7.89-24.59-31.379-53.766c-26.424-33.214-33.581-37.985-91.568-52.482-43.674-11.01-68.446-54.684-36.333-100.01C43.043-2.586 73.872 3.653 103.232 23.105c38.17 25.507 28.81 70.465 68.263 104.23 39.637 33.58 73.035 42.939 96.523 23.487 23.488-19.45 15.964-51.38 30.461-84.227s47.527-49.179 76.154-37.435 42.756 34.866 48.077 49.913c11.745 32.663-29.177 61.657-29.177 61.657s52.115-20.185 62.758-11.194c10.644 8.992 5.138 16.699-21.286 43.307C402.341 205.69 332.243 281.66 332.243 281.66s11.561 19.635 35.417 40.187c43.673 37.802 104.046 28.26 120.928 49.546 41.839 52.481 20.736 90.65-9.91 112.303-30.644 21.837-55.05 23.122-83.493 3.67-28.443-19.45-13.212-56.885-60.005-102.945-27.526-27.158-70.649-69.364-86.98-48.628s-21.287 56.336-20.92 72.667c.918 43.857-25.507 88.632-55.968 92.67-30.462 4.036-57.07 10.642-93.403-31.013-20.643-23.696-2.638-64.23 4.363-74.79M70.294 19.617c-13.212.55-18.993 12.111-7.983 22.387 11.01 10.46 11.744 11.194 18.534 6.79 11.01-6.79 18.534-16.515 8.074-22.387s-18.625-6.79-18.625-6.79m22.295 44.958c13.763 14.497 38.169 42.573 40.187 40.187 2.019-2.385 2.019-5.688-5.688-19.084S101.58 48.794 96.993 52.464c-4.404 3.67-4.404 12.111-4.404 12.111m266.997-28.443c-4.404-11.01-29.544 1.468-45.876 20.553-13.943 26.39-14.53 75.05-25.14 87.163-4.22 5.873-23.488 18.167-19.635 19.452 3.854 1.1 24.773-10.093 33.031-25.14 8.441-14.864 6.606-42.022 15.598-56.886 2.936-4.771 16.148-25.323 23.121-30.278 6.973-4.771 18.9-14.864 18.9-14.864m15.69 5.78c-9.91-1.467-22.113.276-21.93 14.222.184 13.763 1.836 13.212 11.561 14.864 18.167 2.752 22.571-12.845 21.47-18.534s-11.102-10.551-11.102-10.551m-212.589 348.38c-1.284-8.991 3.12-15.78 16.7-9.725 13.762 6.055 16.514 18.717 10.826 19.818-5.689 1.101-27.526-10.093-27.526-10.093m291.22-12.845c9.725 7.89 34.865 25.507 27.524 34.499-7.34 8.808-3.67 1.835-27.892-10.276-24.039-11.928-69.548-34.132-74.685-43.307-11.76-26.53 38.307-6.21 75.052 19.084m-356.379 59.12c-5.138-16.148-4.68-11.652-4.68-22.662 0-9.91 17.617-27.893 9.91-25.507-7.707 2.569-20.92 20.185-22.388 31.379-5.138 38.168 6.79 50.83 13.58 54.133 24.222 12.111 21.47-7.524 17.249-13.396-4.22-5.688-11.285-16.24-13.671-23.947m53.767-110.736c-13.212-5.689 40.738-43.49 40.554-63.308-.183-27.71-17.983-51.565-25.507-63.676-7.34-12.294-12.661-13.579-11.744-19.451 1.101-5.872 27.342 15.047 39.637 41.655 10.826 23.305 15.78 32.663 6.239 59.822-4.588 13.029-49.179 44.958-49.179 44.958m113.972-121.795c-7.89 3.487-20.002 7.34-21.286 13.029-1.468 5.689 14.68 10.827 17.8 4.955 3.12-5.873 5.138-12.479 16.698-17.066 11.745-4.588 163.318-62.208 164.052-66.245.734-3.853 5.505-4.587-8.074.367-13.58 4.772-161.3 61.474-169.19 64.96m-206.34 171.05s44.592-54.776 58.722-67.07c13.946-12.296 60.189-55.235 60.189-55.235s-32.113 38.168-49.363 53.4c-32.847 29.543-30.461 29.084-69.547 68.904" data-iconColor="Mathjax"/></svg>
